assets/img/braze_icons/video-recorder-off.svg

<svg fill="none" height="24" viewBox="0 0 24 24" width="24" xmlns="http://www.w3.org/2000/svg"><g fill="#801ed7"><path d="m21.5351 17.2924c.424-.0098.827-.1993 1.1055-.5254.2792-.3269.3236-.7202.3405-.9111.019-.2139.0189-.4797.0189-.75v-6.21183c0-.27036.0001-.53616-.0189-.75011-.0169-.19089-.0613-.58415-.3405-.91109-.3118-.36512-.7796-.55888-1.2583-.52121-.4286.03374-.7381.28045-.885.40346-.1647.13788-.3526.3258-.5437.517l-1.9536 1.95361c-.0002-.72774-.0032-1.33562-.0442-1.83755-.0459-.5621-.1445-1.0788-.3918-1.56414-.3835-.75265-.9954-1.36457-1.748-1.74806-.4854-.2473-1.0021-.34586-1.5642-.39179-.5412-.04421-1.2055-.0442-2.0105-.04419h-3.99866z"/><path d="m2.70711 1.29289c-.39053-.390521-1.02369-.390521-1.41422 0-.39052.39053-.39052 1.02369 0 1.41422l1.78498 1.78498c-.70403.38575-1.2766.975-1.64189 1.69194-.24729.48534-.34586 1.00204-.39178 1.56414-.044221.54118-.044211 1.20553-.0442 2.01048v4.48265c-.000011.8049-.000021 1.4693.0442 2.0105.04592.5621.14449 1.0788.39178 1.5642.38349.7526.99541 1.3645 1.74806 1.748.48534.2473 1.00204.3459 1.56414.3918.54118.0442 1.20553.0442 2.01048.0442h5.48264c.8049 0 1.4693 0 2.0105-.0442.5621-.0459 1.0788-.1445 1.5642-.3918.501-.2553.9397-.6118 1.2901-1.0437l4.1868 4.1868c.3905.3905 1.0237.3905 1.4142 0s.3905-1.0237 0-1.4142z"/></g></svg>

<svg width="24" height="24" viewBox="0 0 24 24" fill="none" xmlns="http://www.w3.org/2000/svg">
<path d="M21.5351 17.2924C21.9591 17.2826 22.3621 17.0931 22.6406 16.767C22.9198 16.4401 22.9642 16.0468 22.9811 15.8559C23.0001 15.642 23 15.3762 23 15.1059V8.89407C23 8.62371 23.0001 8.35791 22.9811 8.14396C22.9642 7.95307 22.9198 7.55981 22.6406 7.23287C22.3288 6.86775 21.861 6.67399 21.3823 6.71166C20.9537 6.7454 20.6442 6.99211 20.4973 7.11512C20.3326 7.253 20.1447 7.44092 19.9536 7.63212L18 9.58573C17.9998 8.85799 17.9968 8.25011 17.9558 7.74818C17.9099 7.18608 17.8113 6.66938 17.564 6.18404C17.1805 5.43139 16.5686 4.81947 15.816 4.43598C15.3306 4.18868 14.8139 4.09012 14.2518 4.04419C13.7106 3.99998 13.0463 3.99999 12.2413 4H8.24264L21.5351 17.2924Z" fill="#801ED7"/>
<path d="M2.70711 1.29289C2.31658 0.902369 1.68342 0.902369 1.29289 1.29289C0.90237 1.68342 0.90237 2.31658 1.29289 2.70711L3.07787 4.49209C2.37384 4.87784 1.80127 5.46709 1.43598 6.18403C1.18869 6.66937 1.09012 7.18607 1.0442 7.74817C0.999979 8.28935 0.999989 8.9537 1 9.75865V14.2413C0.999989 15.0462 0.999979 15.7106 1.0442 16.2518C1.09012 16.8139 1.18869 17.3306 1.43598 17.816C1.81947 18.5686 2.43139 19.1805 3.18404 19.564C3.66938 19.8113 4.18608 19.9099 4.74818 19.9558C5.28936 20 5.95371 20 6.75866 20H12.2413C13.0462 20 13.7106 20 14.2518 19.9558C14.8139 19.9099 15.3306 19.8113 15.816 19.564C16.317 19.3087 16.7557 18.9522 17.1061 18.5203L21.2929 22.7071C21.6834 23.0976 22.3166 23.0976 22.7071 22.7071C23.0976 22.3166 23.0976 21.6834 22.7071 21.2929L2.70711 1.29289Z" fill="#801ED7"/>
</svg>
